dist/img/percent.svg

<svg viewBox="0 0 11 11" fill="none" xmlns="http://www.w3.org/2000/svg">
<g clip-path="url(#clip0)">
<path d="M10.8486 0.155242C10.6471 -0.0465391 10.3201 -0.0465391 10.1186 0.155242L0.155178 10.1187C-0.0465176 10.3203 -0.0465176 10.647 0.155178 10.8486C0.255982 10.9495 0.388154 11 0.52024 11C0.652326 11 0.784498 10.9495 0.885217 10.8486L10.8486 0.885195C11.0503 0.683586 11.0503 0.356852 10.8486 0.155242Z" fill="#515151"/>
<path d="M2.45231 0.00390625C1.10017 0.00390625 0 1.10416 0 2.4563C0 3.80845 1.10017 4.90862 2.45231 4.90862C3.80454 4.90862 4.90463 3.80836 4.90463 2.45622C4.90463 1.10408 3.80445 0.00390625 2.45231 0.00390625ZM2.45231 3.87599C1.66942 3.87599 1.03254 3.23902 1.03254 2.45622C1.03254 1.67341 1.66951 1.03645 2.45231 1.03645C3.2352 1.03645 3.87209 1.67341 3.87209 2.45622C3.87209 3.23902 3.2352 3.87599 2.45231 3.87599Z" fill="#515151"/>
<path d="M8.54765 6.09375C7.19551 6.09375 6.09534 7.19392 6.09534 8.54606C6.09534 9.8982 7.19551 10.9984 8.54765 10.9984C9.89979 10.9984 11 9.89829 11 8.54606C11 7.19384 9.89979 6.09375 8.54765 6.09375ZM8.54765 9.96575C7.76476 9.96575 7.12788 9.32878 7.12788 8.54598C7.12788 7.76317 7.76485 7.1262 8.54765 7.1262C9.33046 7.1262 9.96742 7.76317 9.96742 8.54598C9.96742 9.32878 9.33054 9.96575 8.54765 9.96575Z" fill="#515151"/>
</g>
<defs>
<clipPath id="clip0">
<rect width="11" height="11" fill="white"/>
</clipPath>
</defs>
</svg>

<svg viewBox="0 0 11 11" fill="none" xmlns="http://www.w3.org/2000/svg"><g clip-path="url(#clip0)" fill="#515151"><path d="M10.849.155a.516.516 0 00-.73 0L.155 10.12a.516.516 0 10.73.73L10.85.885a.516.516 0 000-.73zM2.452.004A2.455 2.455 0 000 2.456C0 3.808 1.1 4.91 2.452 4.91c1.353 0 2.453-1.1 2.453-2.453 0-1.352-1.1-2.452-2.453-2.452zm0 3.872c-.783 0-1.42-.637-1.42-1.42 0-.783.638-1.42 1.42-1.42.783 0 1.42.637 1.42 1.42 0 .783-.637 1.42-1.42 1.42zm6.096 2.218a2.455 2.455 0 00-2.453 2.452c0 1.352 1.1 2.452 2.453 2.452C9.9 10.998 11 9.898 11 8.546c0-1.352-1.1-2.452-2.452-2.452zm0 3.872c-.783 0-1.42-.637-1.42-1.42 0-.783.637-1.42 1.42-1.42.782 0 1.42.637 1.42 1.42 0 .783-.637 1.42-1.42 1.42z"/></g><defs><clipPath id="clip0"><path fill="#fff" d="M0 0h11v11H0z"/></clipPath></defs></svg>
